;FLAVOR:UltiGCode
;TIME:10812
;MATERIAL:12043
;MATERIAL2:0
;NOZZLE_DIAMETER:0.4
;MINX:61.12
;MINY:88.66
;MINZ:0.27
;MAXX:161.88
;MAXY:134.34
;MAXZ:18.27
;TARGET_MACHINE.NAME:Ultimaker 2+
;Generated with Cura_SteamEngine 5.6.0
M82 ;absolute extrusion mode
G0 F3000 Y50 ;avoid prime blob
G92 E0
G92 E0
G10
;LAYER_COUNT:181
;LAYER:0
M107
G0 F7200 X64.777 Y89.663 Z0.27
;TYPE:SKIRT
G11
G1 F1800 X67.849 Y88.66 E0.34901
G1 X83.307 Y88.66 E2.01848
G1 X85.856 Y89.311 E2.3026
G1 X87.106 Y90.381 E2.48031
G1 X89.088 Y89.74 E2.70528
G1 X93.637 Y89.74 E3.19657
G1 X95.56 Y90.166 E3.40929
G1 X95.851 Y90.308 E3.44426
G1 X97.143 Y89.281 E3.62251
G1 X99.75 Y88.66 E3.91195
G1 X128.805 Y88.66 E7.04989
G1 X131.354 Y89.311 E7.33401
G1 X132.602 Y90.381 E7.51155
G1 X134.585 Y89.74 E7.73663
G1 X139.192 Y89.74 E8.23419
G1 X141.075 Y90.155 E8.44243
G1 X141.381 Y90.306 E8.47928
G1 X142.822 Y89.224 E8.6739
G1 X145.313 Y88.66 E8.94974
G1 X155.45 Y88.66 E10.04453
G1 X158.068 Y89.55 E10.34317
G1 X158.384 Y89.75 E10.38356
G1 X160.877 Y92.317 E10.77002
G1 X161.88 Y95.389 E11.11903
G1 X161.88 Y127.519 E14.58907
G1 X161.46 Y129.447 E14.80218
G1 X160.35 Y131.267 E15.03241
G1 X158.204 Y133.349 E15.35533
G1 X155.147 Y134.34 E15.7024
G1 X145.075 Y134.34 E16.79018
G1 X142.525 Y133.689 E17.07441
G1 X141.278 Y132.618 E17.25194
G1 X139.284 Y133.26 E17.47818
G1 X134.67 Y133.26 E17.97649
G1 X132.73 Y132.832 E18.19105
G1 X132.464 Y132.699 E18.22317
G1 X131.183 Y133.719 E18.40001
G1 X128.576 Y134.34 E18.68945
G1 X99.531 Y134.34 E21.82631
G1 X96.962 Y133.688 E22.11256
G1 X95.727 Y132.624 E22.28861
G1 X93.756 Y133.26 E22.51229
G1 X89.174 Y133.26 E23.00714
G1 X87.234 Y132.832 E23.2217
G1 X86.968 Y132.699 E23.25382
G1 X85.687 Y133.719 E23.43067
G1 X83.08 Y134.34 E23.7201
G1 X67.941 Y134.34 E25.35511
G1 X66.013 Y133.92 E25.56822
G1 X64.193 Y132.81 E25.79845
G1 X62.111 Y130.664 E26.12137
G1 X61.12 Y127.607 E26.46844
G1 X61.12 Y95.09 E29.98028
G1 X62.01 Y92.472 E30.27891
G1 X62.21 Y92.156 E30.3193
G1 X64.777 Y89.663 E30.70577
G0 F7200 X64.99 Y90.014
G1 F1800 X62.489 Y92.443 E31.0823
G1 X62.389 Y92.601 E31.10249
G1 X61.52 Y95.157 E31.39406
G1 X61.52 Y127.543 E34.89175
G1 X62.463 Y130.452 E35.22201
G1 X64.447 Y132.497 E35.52973
G1 X66.162 Y133.543 E35.74668
G1 X67.985 Y133.94 E35.94818
G1 X83.033 Y133.94 E37.57337
G1 X85.508 Y133.351 E37.84813
G1 X86.932 Y132.217 E38.04473
G1 X87.32 Y132.441 E38.09312
G1 X89.219 Y132.86 E38.30314
G1 X93.692 Y132.86 E38.78623
G1 X95.817 Y132.174 E39.02739
G1 X97.151 Y133.323 E39.21754
G1 X99.582 Y133.94 E39.48841
G1 X128.529 Y133.94 E42.61468
G1 X131.004 Y133.351 E42.88945
G1 X132.428 Y132.217 E43.08605
G1 X132.816 Y132.441 E43.13443
G1 X134.715 Y132.86 E43.34446
G1 X139.221 Y132.86 E43.83111
G1 X141.369 Y132.169 E44.0748
G1 X142.714 Y133.324 E44.26627
G1 X145.127 Y133.94 E44.53523
G1 X155.083 Y133.94 E45.61048
G1 X157.992 Y132.997 E45.94075
G1 X160.037 Y131.013 E46.24847
G1 X161.083 Y129.298 E46.46542
G1 X161.48 Y127.475 E46.66692
G1 X161.48 Y95.452 E50.1254
G1 X160.526 Y92.53 E50.45737
G1 X158.097 Y90.029 E50.8339
G1 X157.939 Y89.929 E50.8541
G1 X155.383 Y89.06 E51.14566
G1 X145.357 Y89.06 E52.22847
G1 X142.994 Y89.595 E52.49013
G1 X141.414 Y90.782 E52.70356
G1 X140.989 Y90.546 E52.75606
G1 X139.147 Y90.14 E52.95978
G1 X134.649 Y90.14 E53.44556
G1 X132.512 Y90.831 E53.68812
G1 X131.165 Y89.676 E53.87975
G1 X128.753 Y89.06 E54.14861
G1 X99.797 Y89.06 E57.27586
G1 X97.322 Y89.649 E57.55062
G1 X95.892 Y90.787 E57.748
G1 X95.473 Y90.557 E57.79962
G1 X93.591 Y90.14 E58.00781
G1 X89.152 Y90.14 E58.48722
G1 X87.016 Y90.831 E58.72968
G1 X85.667 Y89.676 E58.92148
G1 X83.255 Y89.06 E59.19033
G1 X67.912 Y89.06 E60.84738
G1 X64.99 Y90.014 E61.17935
G0 F7200 X65.203 Y90.365
G1 F1800 X67.975 Y89.46 E61.49427
G1 X83.203 Y89.46 E63.1389
G1 X85.478 Y90.041 E63.39248
G1 X86.926 Y91.281 E63.59837
G1 X89.216 Y90.54 E63.85832
G1 X93.545 Y90.54 E64.32585
G1 X95.386 Y90.948 E64.5295
G1 X95.922 Y91.274 E64.59726
G1 X97.501 Y90.017 E64.81523
G1 X99.844 Y89.46 E65.07532
G1 X128.701 Y89.46 E68.19188
G1 X130.976 Y90.041 E68.44546
G1 X132.422 Y91.281 E68.65119
G1 X134.713 Y90.54 E68.91124
G1 X139.102 Y90.54 E69.38525
G1 X140.903 Y90.937 E69.58443
G1 X141.437 Y91.265 E69.65211
G1 X143.166 Y89.966 E69.88567
G1 X145.401 Y89.46 E70.13316
G1 X155.316 Y89.46 E71.20398
G1 X157.81 Y90.308 E71.48848
G1 X160.175 Y92.743 E71.85508
G1 X161.08 Y95.515 E72.17001
G1 X161.08 Y127.431 E75.61693
G1 X160.706 Y129.149 E75.80682
G1 X159.724 Y130.759 E76.0105
G1 X157.78 Y132.645 E76.30302
G1 X155.019 Y133.54 E76.61648
G1 X145.179 Y133.54 E77.6792
G1 X142.903 Y132.959 E77.93289
G1 X141.459 Y131.719 E78.13845
G1 X139.157 Y132.46 E78.39963
G1 X134.76 Y132.46 E78.87451
G1 X132.902 Y132.05 E79.08
G1 X132.405 Y131.723 E79.14425
G1 X130.825 Y132.983 E79.36251
G1 X128.482 Y133.54 E79.6226
G1 X99.633 Y133.54 E82.7383
G1 X97.34 Y132.958 E82.99379
G1 X95.908 Y131.724 E83.19795
G1 X93.628 Y132.46 E83.4567
G1 X89.264 Y132.46 E83.92801
G1 X87.406 Y132.05 E84.1335
G1 X86.909 Y131.723 E84.19776
G1 X85.329 Y132.983 E84.41601
G1 X82.986 Y133.54 E84.67611
G1 X68.029 Y133.54 E86.29146
G1 X66.311 Y133.166 E86.48135
G1 X64.701 Y132.184 E86.68503
G1 X62.815 Y130.24 E86.97755
G1 X61.92 Y127.479 E87.29101
G1 X61.92 Y95.224 E90.77455
G1 X62.768 Y92.73 E91.05905
G1 X65.203 Y90.365 E91.42565
G0 F7200 X65.416 Y90.716
G1 F1800 X68.038 Y89.86 E91.72353
G1 X83.151 Y89.86 E93.35574
G1 X85.289 Y90.406 E93.59405
G1 X86.836 Y91.731 E93.81403
G1 X89.28 Y90.94 E94.09147
G1 X93.499 Y90.94 E94.54712
G1 X95.299 Y91.339 E94.74624
G1 X95.943 Y91.769 E94.82987
G1 X97.681 Y90.385 E95.06982
G1 X99.89 Y89.86 E95.31503
G1 X128.649 Y89.86 E98.421
G1 X130.787 Y90.406 E98.65932
G1 X132.332 Y91.731 E98.87914
G1 X134.777 Y90.94 E99.15667
G1 X139.057 Y90.94 E99.61891
G1 X140.817 Y91.328 E99.81356
G1 X141.45 Y91.756 E99.89608
G1 X143.338 Y90.337 E100.15116
G1 X145.445 Y89.86 E100.38447
G1 X155.249 Y89.86 E101.4433
G1 X157.59 Y90.656 E101.71035
G1 X159.824 Y92.956 E102.05663
G1 X160.68 Y95.578 E102.35452
G1 X160.68 Y127.387 E105.78989
G1 X160.329 Y129 E105.96817
G1 X159.411 Y130.505 E106.15856
G1 X157.568 Y132.293 E106.43588
G1 X154.955 Y133.14 E106.73254
G1 X145.231 Y133.14 E107.78274
G1 X143.092 Y132.594 E108.02115
G1 X141.55 Y131.27 E108.24066
G1 X139.094 Y132.06 E108.51929
G1 X134.805 Y132.06 E108.9825
G1 X133.059 Y131.675 E109.1756
G1 X132.382 Y131.23 E109.2631
G1 X130.645 Y132.615 E109.50303
G1 X128.436 Y133.14 E109.74824
G1 X99.684 Y133.14 E112.85346
G1 X97.529 Y132.593 E113.09358
G1 X95.999 Y131.274 E113.31175
G1 X93.564 Y132.06 E113.58809
G1 X89.309 Y132.06 E114.04763
G1 X87.563 Y131.675 E114.24073
G1 X86.886 Y131.23 E114.32822
G1 X85.149 Y132.615 E114.56815
G1 X82.94 Y133.14 E114.81337
G1 X68.073 Y133.14 E116.41901
G1 X66.46 Y132.789 E116.59729
G1 X64.955 Y131.871 E116.78768
G1 X63.167 Y130.028 E117.065
G1 X62.32 Y127.415 E117.36166
G1 X62.32 Y95.291 E120.83105
G1 X63.116 Y92.95 E121.0981
G1 X65.416 Y90.716 E121.44438
G0 F7200 X65.629 Y91.067
G1 F1800 X68.101 Y90.26 E121.72523
G1 X83.099 Y90.26 E123.34501
G1 X85.1 Y90.771 E123.56805
G1 X86.827 Y92.251 E123.81369
G1 X87.087 Y92.071 E123.84784
G1 X89.344 Y91.34 E124.10406
G1 X93.453 Y91.34 E124.54784
G1 X95.14 Y91.714 E124.73445
G1 X95.964 Y92.264 E124.84145
G1 X97.861 Y90.753 E125.10337
G1 X99.936 Y90.26 E125.33371
G1 X128.597 Y90.26 E128.4291
G1 X130.598 Y90.771 E128.65214
G1 X132.322 Y92.25 E128.89746
G1 X132.582 Y92.071 E128.93156
G1 X134.841 Y91.34 E129.18798
G1 X139.012 Y91.34 E129.63845
G1 X140.658 Y91.703 E129.82049
G1 X141.516 Y92.284 E129.9324
G1 X141.703 Y92.064 E129.96358
G1 X143.51 Y90.708 E130.20758
G1 X145.489 Y90.26 E130.42672
G1 X155.182 Y90.26 E131.47356
G1 X157.37 Y91.004 E131.72315
G1 X159.473 Y93.169 E132.04912
G1 X160.28 Y95.641 E132.32997
G1 X160.28 Y127.343 E135.75378
G1 X159.952 Y128.851 E135.92045
G1 X159.098 Y130.251 E136.09757
G1 X157.356 Y131.941 E136.35969
G1 X154.891 Y132.74 E136.63955
G1 X145.283 Y132.74 E137.67721
G1 X143.282 Y132.229 E137.90025
G1 X141.547 Y130.74 E138.14718
G1 X141.257 Y130.944 E138.18547
G1 X139.031 Y131.66 E138.43801
G1 X134.85 Y131.66 E138.88956
G1 X133.216 Y131.3 E139.07026
G1 X132.36 Y130.737 E139.18091
G1 X130.465 Y132.247 E139.4426
G1 X128.39 Y132.74 E139.67294
G1 X99.735 Y132.74 E142.76768
G1 X97.718 Y132.228 E142.99242
G1 X96.007 Y130.754 E143.23633
G1 X95.746 Y130.935 E143.27063
G1 X93.5 Y131.66 E143.52552
G1 X89.354 Y131.66 E143.97329
G1 X87.72 Y131.3 E144.15399
G1 X86.864 Y130.737 E144.26465
G1 X84.969 Y132.247 E144.52633
G1 X82.894 Y132.74 E144.75667
G1 X68.117 Y132.74 E146.35259
G1 X66.609 Y132.412 E146.51926
G1 X65.209 Y131.558 E146.69637
G1 X63.519 Y129.816 E146.95849
G1 X62.72 Y127.351 E147.23835
G1 X62.72 Y95.358 E150.69359
G1 X63.464 Y93.17 E150.94319
G1 X65.629 Y91.067 E151.26916
G0 F7200 X65.842 Y91.418
G1 F1800 X68.164 Y90.66 E151.53296
G1 X83.047 Y90.66 E153.14032
G1 X84.911 Y91.136 E153.34809
G1 X86.596 Y92.58 E153.58775
G1 X86.767 Y92.821 E153.61967
G1 X87.21 Y92.452 E153.68194
G1 X89.408 Y91.74 E153.93146
G1 X93.411 Y91.74 E154.36379
G1 X94.979 Y92.088 E154.53725
G1 X96.069 Y92.814 E154.67869
G1 X96.294 Y92.512 E154.71937
G1 X98.041 Y91.121 E154.96055
G1 X99.982 Y90.66 E155.17601
G1 X128.545 Y90.66 E158.26081
G1 X130.409 Y91.136 E158.46858
G1 X132.102 Y92.588 E158.70946
G1 X132.265 Y92.817 E158.73982
G1 X132.705 Y92.452 E158.80156
G1 X134.905 Y91.74 E159.0513
G1 X138.967 Y91.74 E159.48999
G1 X140.499 Y92.078 E159.65943
G1 X141.604 Y92.826 E159.80354
G1 X141.943 Y92.384 E159.8637
G1 X143.682 Y91.079 E160.09851
G1 X145.533 Y90.66 E160.30348
G1 X155.115 Y90.66 E161.33833
G1 X157.15 Y91.352 E161.57047
G1 X159.122 Y93.382 E161.87613
G1 X159.88 Y95.704 E162.13993
G1 X159.88 Y127.299 E165.55219
G1 X159.575 Y128.702 E165.70725
G1 X158.785 Y129.997 E165.87108
G1 X157.144 Y131.589 E166.118
G1 X154.827 Y132.34 E166.38106
G1 X145.335 Y132.34 E167.40619
G1 X143.471 Y131.864 E167.61396
G1 X141.781 Y130.414 E167.85446
G1 X141.608 Y130.169 E167.88685
G1 X141.135 Y130.563 E167.95334
G1 X138.968 Y131.26 E168.19918
G1 X134.895 Y131.26 E168.63906
G1 X133.373 Y130.925 E168.80737
G1 X132.254 Y130.189 E168.95202
G1 X132.031 Y130.488 E168.99231
G1 X130.285 Y131.879 E169.2334
G1 X128.344 Y132.34 E169.44886
G1 X99.786 Y132.34 E172.53313
G1 X97.907 Y131.863 E172.74249
G1 X96.221 Y130.41 E172.98287
G1 X96.063 Y130.187 E173.01239
G1 X95.623 Y130.554 E173.07427
G1 X93.436 Y131.26 E173.32247
G1 X89.399 Y131.26 E173.75846
G1 X87.877 Y130.925 E173.92677
G1 X86.758 Y130.189 E174.07142
G1 X86.535 Y130.488 E174.11171
G1 X84.789 Y131.879 E174.3528
G1 X82.848 Y132.34 E174.56826
G1 X68.161 Y132.34 E176.15446
G1 X66.758 Y132.035 E176.30952
G1 X65.463 Y131.245 E176.47335
G1 X63.871 Y129.604 E176.72027
G1 X63.12 Y127.287 E176.98333
G1 X63.12 Y95.425 E180.42442
G1 X63.812 Y93.39 E180.65656
G1 X65.842 Y91.418 E180.96222
G0 F7200 X66.055 Y91.769
G1 F1800 X68.227 Y91.06 E181.20897
G1 X82.995 Y91.06 E182.80392
G1 X84.722 Y91.501 E182.99642
G1 X86.336 Y92.884 E183.22597
G1 X86.684 Y93.453 E183.29801
G1 X87.333 Y92.833 E183.39494
G1 X89.472 Y92.14 E183.63777
G1 X93.369 Y92.14 E184.05865
G1 X94.818 Y92.462 E184.21896
G1 X95.914 Y93.191 E184.36112
G1 X96.142 Y93.426 E184.39648
G1 X96.543 Y92.825 E184.47451
G1 X98.221 Y91.489 E184.70616
G1 X100.028 Y91.06 E184.90674
G1 X128.493 Y91.06 E187.98096
G1 X130.22 Y91.501 E188.17346
G1 X131.842 Y92.892 E188.40423
G1 X132.181 Y93.449 E188.47466
G1 X132.828 Y92.833 E188.57114
G1 X134.969 Y92.14 E188.81418
G1 X138.922 Y92.14 E189.2411
G1 X140.34 Y92.453 E189.39793
G1 X141.438 Y93.196 E189.54111
G1 X141.67 Y93.42 E189.57594
G1 X142.183 Y92.704 E189.67107
G1 X143.854 Y91.45 E189.8967
G1 X145.577 Y91.06 E190.08749
G1 X155.048 Y91.06 E191.11036
G1 X156.93 Y91.7 E191.32505
G1 X158.771 Y93.595 E191.61039
G1 X159.48 Y95.767 E191.85715
G1 X159.48 Y127.255 E195.25785
G1 X159.198 Y128.553 E195.4013
G1 X158.472 Y129.743 E195.55185
G1 X156.932 Y131.237 E195.78358
G1 X154.763 Y131.94 E196.02983
G1 X145.387 Y131.94 E197.04244
G1 X143.66 Y131.499 E197.23494
G1 X142.041 Y130.11 E197.46532
G1 X141.689 Y129.539 E197.53776
G1 X141.013 Y130.182 E197.63853
G1 X138.905 Y130.86 E197.87768
G1 X134.94 Y130.86 E198.3059
G1 X133.53 Y130.55 E198.46181
G1 X132.445 Y129.836 E198.60209
G1 X132.181 Y129.578 E198.64195
G1 X131.782 Y130.175 E198.71951
G1 X130.105 Y131.511 E198.95107
G1 X128.298 Y131.94 E199.15165
G1 X99.837 Y131.94 E202.22544
G1 X98.096 Y131.498 E202.41943
G1 X96.482 Y130.107 E202.64955
G1 X96.146 Y129.553 E202.71952
G1 X95.5 Y130.173 E202.81622
G1 X93.372 Y130.86 E203.05773
G1 X89.444 Y130.86 E203.48195
G1 X88.034 Y130.55 E203.63787
G1 X86.949 Y129.836 E203.77815
G1 X86.685 Y129.578 E203.81801
G1 X86.286 Y130.175 E203.89556
G1 X84.609 Y131.511 E204.12713
G1 X82.802 Y131.94 E204.32771
G1 X68.205 Y131.94 E205.90418
G1 X66.907 Y131.658 E206.04764
G1 X65.717 Y130.932 E206.19819
G1 X64.223 Y129.392 E206.42991
G1 X63.52 Y127.223 E206.67616
G1 X63.52 Y95.492 E210.10311
G1 X64.16 Y93.61 E210.3178
G1 X66.055 Y91.769 E210.60314
G0 F7200 X66.268 Y92.12
G1 F1800 X68.29 Y91.46 E210.83285
G1 X82.943 Y91.46 E212.41537
G1 X84.533 Y91.866 E212.5926
G1 X86.028 Y93.147 E212.80523
G1 X86.601 Y94.084 E212.92385
G1 X87.542 Y93.186 E213.06433
G1 X89.536 Y92.54 E213.2907
G1 X93.327 Y92.54 E213.70013
G1 X94.658 Y92.836 E213.84739
G1 X95.655 Y93.499 E213.9767
G1 X96.2 Y94.059 E214.06109
G1 X96.842 Y93.099 E214.18582
G1 X98.401 Y91.857 E214.40109
G1 X100.074 Y91.46 E214.58679
G1 X128.441 Y91.46 E217.65043
G1 X130.031 Y91.866 E217.82766
G1 X131.533 Y93.154 E218.04135
G1 X132.098 Y94.082 E218.15869
G1 X133.038 Y93.186 E218.29894
G1 X135.033 Y92.54 E218.52541
G1 X138.877 Y92.54 E218.94056
G1 X140.181 Y92.828 E219.08479
G1 X141.214 Y93.527 E219.21949
G1 X141.717 Y94.041 E219.29716
G1 X142.472 Y92.987 E219.43719
G1 X144.026 Y91.821 E219.64701
G1 X145.621 Y91.46 E219.82363
G1 X154.981 Y91.46 E220.83451
G1 X156.71 Y92.048 E221.03174
G1 X158.42 Y93.808 E221.29676
G1 X159.08 Y95.83 E221.52648
G1 X159.08 Y127.211 E224.91563
G1 X158.821 Y128.404 E225.04747
G1 X158.159 Y129.489 E225.18474
G1 X156.72 Y130.885 E225.40127
G1 X154.699 Y131.54 E225.63071
G1 X145.439 Y131.54 E226.63079
G1 X143.849 Y131.134 E226.80802
G1 X142.35 Y129.848 E227.02133
G1 X141.772 Y128.91 E227.14032
G1 X140.804 Y129.829 E227.28448
G1 X138.842 Y130.46 E227.50706
G1 X134.985 Y130.46 E227.92362
G1 X133.687 Y130.175 E228.06714
G1 X132.665 Y129.502 E228.1993
G1 X132.124 Y128.945 E228.28316
G1 X131.484 Y129.901 E228.40741
G1 X129.925 Y131.143 E228.62268
G1 X128.252 Y131.54 E228.80838
G1 X99.888 Y131.54 E231.87169
G1 X98.285 Y131.133 E232.05031
G1 X96.792 Y129.846 E232.26319
G1 X96.229 Y128.919 E232.38033
G1 X95.291 Y129.82 E232.52079
G1 X93.308 Y130.46 E232.74584
G1 X89.489 Y130.46 E233.15829
G1 X88.191 Y130.175 E233.30181
G1 X87.169 Y129.502 E233.43397
G1 X86.628 Y128.945 E233.51783
G1 X85.988 Y129.901 E233.64208
G1 X84.429 Y131.143 E233.85735
G1 X82.756 Y131.54 E234.04305
G1 X68.249 Y131.54 E235.60981
G1 X67.056 Y131.281 E235.74165
G1 X65.971 Y130.619 E235.87892
G1 X64.575 Y129.18 E236.09545
G1 X63.92 Y127.159 E236.32489
G1 X63.92 Y95.559 E239.73769
G1 X64.508 Y93.83 E239.93493
G1 X66.268 Y92.12 E240.19995
G0 F7200 X66.481 Y92.471
G1 F1800 X68.353 Y91.86 E240.41262
G1 X82.891 Y91.86 E241.98273
G1 X84.344 Y92.231 E242.14469
G1 X85.72 Y93.41 E242.34039
G1 X86.518 Y94.715 E242.50559
G1 X87.751 Y93.539 E242.68961
G1 X89.6 Y92.94 E242.89952
G1 X93.285 Y92.94 E243.2975
G1 X94.498 Y93.21 E243.43171
G1 X95.396 Y93.807 E243.54817
G1 X96.257 Y94.692 E243.68152
G1 X97.14 Y93.373 E243.85294
G1 X98.581 Y92.225 E244.05192
G1 X100.12 Y91.86 E244.22275
G1 X128.389 Y91.86 E247.2758
G1 X129.842 Y92.231 E247.43776
G1 X131.224 Y93.416 E247.63437
G1 X132.015 Y94.714 E247.79853
G1 X133.248 Y93.539 E247.98248
G1 X135.097 Y92.94 E248.19239
G1 X138.832 Y92.94 E248.59577
G1 X140.022 Y93.203 E248.72739
G1 X140.954 Y93.834 E248.84894
G1 X141.765 Y94.661 E248.97404
G1 X142.761 Y93.27 E249.15881
G1 X144.198 Y92.192 E249.35282
G1 X145.665 Y91.86 E249.51526
G1 X154.914 Y91.86 E250.51415
